src/assets/tokens/rusd.svg

<svg xmlns="http://www.w3.org/2000/svg" viewBox="0 0 158 158"><path fill="#28282A" d="M0 .21h52.51v52.51H0zm52.51 52.51L105.01.21h52.51v52.51zm52.5 52.5h52.51v52.51h-52.51zM0 157.73v-52.51l52.51-52.5v105.01z"/></svg>

<svg width="158" height="158" viewBox="0 0 158 158" fill="none" xmlns="http://www.w3.org/2000/svg">
<path fill-rule="evenodd" clip-rule="evenodd" d="M0 0.209961H52.51V52.72H0V0.209961ZM52.51 52.72L105.01 0.209961H157.52V52.72H52.51ZM105.01 105.22H157.52V157.73H105.01V105.22ZM0 157.73V105.22L52.51 52.72V157.73H0Z" fill="#28282A"/>
</svg>
